static/img/bg-hero.svg

<?xml version="1.0" encoding="utf-8"?>
<!-- Generator: Adobe Illustrator 16.0.0, SVG Export Plug-In . SVG Version: 6.00 Build 0)  -->
<!DOCTYPE svg PUBLIC "-//W3C//DTD SVG 1.1//EN" "http://www.w3.org/Graphics/SVG/1.1/DTD/svg11.dtd">
<svg version="1.1" id="レイヤー_1" xmlns="http://www.w3.org/2000/svg" xmlns:xlink="http://www.w3.org/1999/xlink" x="0px"
	 y="0px" width="1440px" height="442px" viewBox="0 0 1440 442" enable-background="new 0 0 1440 442" xml:space="preserve">
<g>
	<path fill="#FFFFFF" d="M47.365,424V61.1H-1.814V6h160.19v55.1h-47.27V424H47.365z"/>
	<path fill="#FFFFFF" d="M306.631,298.363L278.46,88.413h-0.955l-25.783,209.951H306.631z M174.849,424L234.772,6h84.512l63.742,418
		h-59.684l-10.027-74.575h-67.8L236.443,424H174.849z"/>
	<path fill="#FFFFFF" d="M426.952,424V6h79.499l59.684,305.425L622.238,6h79.977v418h-57.058V268.2l2.388-142.975L590.964,422.1
		h-50.852l-58.967-296.875l2.387,142.975V424H426.952z"/>
	<path fill="#FFFFFF" d="M786.965,424V61.1h-49.18V6h160.191v55.1h-47.27V424H786.965z"/>
	<path fill="#FFFFFF" d="M1046.23,298.363l-28.17-209.951h-0.95l-25.788,209.951H1046.23z M914.448,424L974.371,6h84.509l63.75,418
		h-59.69l-10.02-74.575h-67.806L976.043,424H914.448z"/>
	<path fill="#FFFFFF" d="M1166.55,424V6h79.5l59.689,305.425L1361.84,6h79.97v418h-57.05V268.2l2.38-142.975L1330.56,422.1h-50.851
		l-58.959-296.875l2.38,142.975V424H1166.55z"/>
</g>
<g>
	<path fill="#F8FC30" d="M47.365,430c-3.313,0-6-2.686-6-6V67.1H-1.814c-3.314,0-6-2.687-6-6V6c0-3.313,2.686-6,6-6h160.19
		c3.313,0,6,2.687,6,6v55.1c0,3.313-2.687,6-6,6h-41.27V424c0,3.314-2.686,6-6,6H47.365z M111.107,61.1h47.27V6H-1.814v55.1h49.179
		V424h63.742V61.1z M170.315,427.93c-1.139-1.314-1.651-3.059-1.404-4.78L228.832,5.148C229.256,2.194,231.787,0,234.772,0h84.512
		c2.964,0,5.484,2.165,5.932,5.096l63.742,418c0.264,1.729-0.24,3.487-1.381,4.814c-1.14,1.327-2.802,2.09-4.551,2.09h-59.684
		c-3.005,0-5.546-2.223-5.946-5.2l-9.328-69.375h-57.238l-8.431,69.3c-0.367,3.012-2.923,5.275-5.956,5.275h-61.594
		C173.109,430,171.455,429.245,170.315,427.93z M245.515,349.425h67.8L323.342,424h59.684L319.283,6h-84.512l-59.923,418h61.594
		L245.515,349.425z M426.952,430c-3.313,0-6-2.686-6-6V6c0-3.313,2.687-6,6-6h79.499c2.87,0,5.338,2.033,5.889,4.849l53.612,274.358
		L616.337,4.916C616.86,2.068,619.342,0,622.238,0h79.977c3.313,0,6,2.687,6,6v418c0,3.314-2.687,6-6,6h-57.058
		c-3.313,0-6-2.686-6-6V268.2c0-0.033,0-0.067,0-0.101l1.224-73.239l-43.522,228.362c-0.54,2.83-3.014,4.877-5.894,4.877h-50.852
		c-2.862,0-5.327-2.022-5.885-4.831l-45.969-231.435l1.272,76.266c0.001,0.033,0.001,0.067,0.001,0.101V424c0,3.314-2.686,6-6,6
		H426.952z M481.146,125.225L540.113,422.1h50.852l56.58-296.875L645.156,268.2V424h57.058V6h-79.977l-56.103,305.425L506.451,6
		h-79.499v418h56.58V268.2L481.146,125.225z M786.965,430c-3.314,0-6-2.686-6-6V67.1h-43.18c-3.313,0-6-2.687-6-6V6
		c0-3.313,2.687-6,6-6h160.191c3.314,0,6,2.687,6,6v55.1c0,3.313-2.686,6-6,6h-41.27V424c0,3.314-2.687,6-6,6H786.965z
		 M850.707,61.1h47.27V6H737.785v55.1h49.18V424h63.742V61.1z M909.916,427.93c-1.141-1.314-1.653-3.059-1.406-4.78L968.433,5.148
		C968.856,2.194,971.387,0,974.371,0h84.509c2.97,0,5.489,2.165,5.939,5.096l63.74,418c0.26,1.729-0.24,3.487-1.38,4.814
		c-1.141,1.327-2.8,2.09-4.55,2.09h-59.69c-3,0-5.54-2.223-5.939-5.2l-9.33-69.375h-57.241l-8.431,69.3
		c-0.365,3.012-2.922,5.275-5.955,5.275h-61.595C912.709,430,911.055,429.245,909.916,427.93z M985.115,349.425h67.806L1062.94,424
		h59.69L1058.88,6h-84.509l-59.923,418h61.595L985.115,349.425z M1166.55,430c-3.311,0-6-2.686-6-6V6c0-3.313,2.689-6,6-6h79.5
		c2.87,0,5.34,2.033,5.89,4.849l53.61,274.358l50.39-274.291c0.52-2.848,3-4.916,5.9-4.916h79.97c3.32,0,6,2.687,6,6v418
		c0,3.314-2.68,6-6,6h-57.05c-3.32,0-6-2.686-6-6V268.2v-0.037V268.1l1.22-73.239l-43.521,228.362
		c-0.539,2.83-3.02,4.877-5.899,4.877h-50.851c-2.859,0-5.319-2.022-5.88-4.831l-45.97-231.436l1.271,76.267
		c0,0.024,0,0.049,0,0.072v0.028V424c0,3.314-2.681,6-6,6H1166.55z M1220.75,125.225l58.959,296.875h50.851l56.58-296.875
		l-2.38,142.975V424h57.05V6h-79.97l-56.101,305.425L1246.05,6h-79.5v418h56.58V268.2L1220.75,125.225z M277.505,88.413h0.955
		l28.171,209.951h-54.909L277.505,88.413z M278.225,131.777l-19.721,160.586h41.268L278.225,131.777z M1017.11,88.413h0.95
		l28.17,209.951h-54.908L1017.11,88.413z M1017.83,131.777l-19.727,160.586h41.266L1017.83,131.777z"/>
</g>
</svg>

<svg width="1440" height="442" viewBox="0 0 1440 442" fill="none" xmlns="http://www.w3.org/2000/svg">
<g filter="url(#filter0_d)">
<path d="M47.3647 424V61.1H-1.81464V6H158.376V61.1H111.107V424H47.3647Z" fill="white"/>
<path d="M306.631 298.363L278.46 88.4125H277.505L251.722 298.363H306.631ZM174.849 424L234.772 6H319.284L383.026 424H323.342L313.315 349.425H245.515L236.443 424H174.849Z" fill="white"/>
<path d="M426.953 424V6H506.452L566.135 311.425L622.238 6H702.214V424H645.157V268.2L647.544 125.225L590.964 422.1H540.113L481.146 125.225L483.533 268.2V424H426.953Z" fill="white"/>
<path d="M786.965 424V61.1H737.786V6H897.977V61.1H850.707V424H786.965Z" fill="white"/>
<path d="M1046.23 298.363L1018.06 88.4125H1017.11L991.322 298.363H1046.23ZM914.449 424L974.372 6H1058.88L1122.63 424H1062.94L1052.92 349.425H985.115L976.043 424H914.449Z" fill="white"/>
<path d="M1166.55 424V6H1246.05L1305.74 311.425L1361.84 6H1441.81V424H1384.76V268.2L1387.14 125.225L1330.56 422.1H1279.71L1220.75 125.225L1223.13 268.2V424H1166.55Z" fill="white"/>
</g>
<g filter="url(#filter1_d)">
<path fill-rule="evenodd" clip-rule="evenodd" d="M47.3647 430C44.051 430 41.3647 427.314 41.3647 424V67.1H-1.81464C-5.12834 67.1 -7.81464 64.4137 -7.81464 61.1V6C-7.81464 2.68629 -5.12834 0 -1.81464 0H158.376C161.69 0 164.376 2.68629 164.376 6V61.1C164.376 64.4137 161.69 67.1 158.376 67.1H117.107V424C117.107 427.314 114.421 430 111.107 430H47.3647ZM111.107 61.1H158.376V6H-1.81464V61.1H47.3647V424H111.107V61.1ZM170.315 427.93C169.176 426.615 168.663 424.871 168.91 423.149L228.832 5.14857C229.256 2.19399 231.787 0 234.772 0H319.284C322.248 0 324.768 2.16494 325.215 5.0955L388.957 423.096C389.221 424.825 388.717 426.583 387.577 427.91C386.437 429.237 384.775 430 383.026 430H323.342C320.337 430 317.796 427.777 317.396 424.8L308.068 355.425H250.829L242.399 424.725C242.032 427.736 239.476 430 236.443 430H174.849C173.109 430 171.455 429.245 170.315 427.93ZM245.515 349.425H313.315L323.342 424H383.026L319.284 6H234.772L174.849 424H236.443L245.515 349.425ZM426.953 430C423.639 430 420.953 427.314 420.953 424V6C420.953 2.68629 423.639 0 426.953 0H506.452C509.322 0 511.79 2.03252 512.34 4.84929L565.953 279.207L616.337 4.91601C616.86 2.06804 619.342 0 622.238 0H702.214C705.528 0 708.214 2.68629 708.214 6V424C708.214 427.314 705.528 430 702.214 430H645.157C641.843 430 639.157 427.314 639.157 424V268.2C639.157 268.167 639.157 268.133 639.157 268.1L640.38 194.861L596.858 423.223C596.318 426.053 593.844 428.1 590.964 428.1H540.113C537.25 428.1 534.786 426.077 534.228 423.269L488.259 191.834L489.532 268.1C489.533 268.133 489.533 268.167 489.533 268.2V424C489.533 427.314 486.847 430 483.533 430H426.953ZM481.146 125.225L540.113 422.1H590.964L647.544 125.225L645.157 268.2V424H702.214V6H622.238L566.135 311.425L506.452 6H426.953V424H483.533V268.2L481.146 125.225ZM786.965 430C783.651 430 780.965 427.314 780.965 424V67.1H737.786C734.472 67.1 731.786 64.4137 731.786 61.1V6C731.786 2.68629 734.472 0 737.786 0H897.977C901.291 0 903.977 2.68629 903.977 6V61.1C903.977 64.4137 901.291 67.1 897.977 67.1H856.707V424C856.707 427.314 854.021 430 850.707 430H786.965ZM850.707 61.1H897.977V6H737.786V61.1H786.965V424H850.707V61.1ZM909.916 427.93C908.776 426.615 908.263 424.871 908.51 423.149L968.433 5.14857C968.856 2.19399 971.387 0 974.372 0H1058.88C1061.85 0 1064.37 2.16494 1064.82 5.0955L1128.56 423.096C1128.82 424.825 1128.32 426.583 1127.18 427.91C1126.04 429.237 1124.38 430 1122.63 430H1062.94C1059.94 430 1057.4 427.777 1057 424.8L1047.67 355.425H990.429L981.999 424.725C981.633 427.736 979.077 430 976.043 430H914.449C912.71 430 911.055 429.245 909.916 427.93ZM985.115 349.425H1052.92L1062.94 424H1122.63L1058.88 6H974.372L914.449 424H976.043L985.115 349.425ZM1166.55 430C1163.24 430 1160.55 427.314 1160.55 424V6C1160.55 2.68629 1163.24 0 1166.55 0H1246.05C1248.92 0 1251.39 2.03252 1251.94 4.84929L1305.55 279.207L1355.94 4.91601C1356.46 2.06804 1358.94 0 1361.84 0H1441.81C1445.13 0 1447.81 2.68629 1447.81 6V424C1447.81 427.314 1445.13 430 1441.81 430H1384.76C1381.44 430 1378.76 427.314 1378.76 424V268.2L1378.76 268.163L1378.76 268.1L1379.98 194.861L1336.46 423.223C1335.92 426.053 1333.44 428.1 1330.56 428.1H1279.71C1276.85 428.1 1274.39 426.077 1273.83 423.269L1227.86 191.833L1229.13 268.1C1229.13 268.124 1229.13 268.148 1229.13 268.172L1229.13 268.2V424C1229.13 427.314 1226.45 430 1223.13 430H1166.55ZM1220.75 125.225L1279.71 422.1H1330.56L1387.14 125.225L1384.76 268.2V424H1441.81V6H1361.84L1305.74 311.425L1246.05 6H1166.55V424H1223.13V268.2L1220.75 125.225ZM277.505 88.4125H278.46L306.631 298.363H251.722L277.505 88.4125ZM278.225 131.777L258.504 292.363H299.772L278.225 131.777ZM1017.11 88.4125H1018.06L1046.23 298.363H991.322L1017.11 88.4125ZM1017.83 131.777L998.104 292.363H1039.37L1017.83 131.777Z" fill="#F6FA3F"/>
</g>
<defs>
<filter id="filter0_d" x="-1.81464" y="6" width="1455.63" height="430" filterUnits="userSpaceOnUse" color-interpolation-filters="sRGB">
<feFlood flood-opacity="0" result="BackgroundImageFix"/>
<feColorMatrix in="SourceAlpha" type="matrix" values="0 0 0 0 0 0 0 0 0 0 0 0 0 0 0 0 0 0 127 0"/>
<feOffset dx="12" dy="12"/>
<feColorMatrix type="matrix" values="0 0 0 0 1 0 0 0 0 1 0 0 0 0 1 0 0 0 1 0"/>
<feBlend mode="normal" in2="BackgroundImageFix" result="effect1_dropShadow"/>
<feBlend mode="normal" in="SourceGraphic" in2="effect1_dropShadow" result="shape"/>
</filter>
<filter id="filter1_d" x="-7.81464" y="0" width="1467.63" height="442" filterUnits="userSpaceOnUse" color-interpolation-filters="sRGB">
<feFlood flood-opacity="0" result="BackgroundImageFix"/>
<feColorMatrix in="SourceAlpha" type="matrix" values="0 0 0 0 0 0 0 0 0 0 0 0 0 0 0 0 0 0 127 0"/>
<feOffset dx="12" dy="12"/>
<feColorMatrix type="matrix" values="0 0 0 0 1 0 0 0 0 1 0 0 0 0 1 0 0 0 1 0"/>
<feBlend mode="normal" in2="BackgroundImageFix" result="effect1_dropShadow"/>
<feBlend mode="normal" in="SourceGraphic" in2="effect1_dropShadow" result="shape"/>
</filter>
</defs>
</svg>
